X:045
T:Walter Bulwer's No 2
M:4/4
L:1/8
K:G
D2 G2 G2 FG | A2 E2 E4 | FG A2 FG Ac | B2 G2 G2 FE |
D2 G2 G2 FG | A2 E2 E4 | FG AF D2 EF | G4 G4 ||
K:D
A2 A2 B2 B2 | A2 A2 F4 | G2 G2 EF GB | A2 A2 FG AB |
A2 A2 B2 B2 | A2 A2 F4 | G2 G2 EF GE | D4 D4 ||
